X: 14701
T: Gan Ainm
R: jig
M: 6/8
K: Gmajor
g>fg b>ag|f>ed c>BA|g>fg b>ag|f>ed g' zz|
g>fg b>ag|f>ed e>fg|d>cB A>Bc|B>AG g zz||
c>de d>cB|A>Bc B>AG|f>ga g>fe|b>ab B zz|
efg fed|cde dcB|ABc BAG|fed cBA||
c>dc B>cd|e>dc d>cB|c>dc B>cB|ADF G2 G|
A>FA c>BA|GEF A2 F|F>GA G>cB|B3 c3||

